material/.icons/material/monitor-clean.svg

<svg xmlns="http://www.w3.org/2000/svg" viewBox="0 0 24 24"><path d="M21 16H3V4h18m0-2H3c-1.11 0-2 .89-2 2v12a2 2 0 002 2h7v2H8v2h8v-2h-2v-2h7c1.11 0 2-.89 2-2V4a2 2 0 00-2-2m-6 3.5l-.62 1.37L13 7.5l1.38.63L15 9.5l.63-1.37L17 7.5l-1.37-.63L15 5.5m-4.5 2L9.41 9.91 7 11l2.41 1.09 1.09 2.41 1.1-2.41L14 11l-2.4-1.09-1.1-2.41"/></svg>

<?xml version="1.0" encoding="UTF-8"?><!DOCTYPE svg PUBLIC "-//W3C//DTD SVG 1.1//EN" "http://www.w3.org/Graphics/SVG/1.1/DTD/svg11.dtd"><svg xmlns="http://www.w3.org/2000/svg" xmlns:xlink="http://www.w3.org/1999/xlink" version="1.1" id="mdi-monitor-clean" width="24" height="24" viewBox="0 0 24 24"><path d="M21 16H3V4H21M21 2H3C1.89 2 1 2.89 1 4V16C1 17.11 1.9 18 3 18H10V20H8V22H16V20H14V18H21C22.11 18 23 17.11 23 16V4C23 2.89 22.1 2 21 2M15 5.5L14.38 6.87L13 7.5L14.38 8.13L15 9.5L15.63 8.13L17 7.5L15.63 6.87L15 5.5M10.5 7.5L9.41 9.91L7 11L9.41 12.09L10.5 14.5L11.6 12.09L14 11L11.6 9.91L10.5 7.5" /></svg>
